X:0131
T:Miss Gunning's Delight.
M:2/4
L:1/8
Q:1/4=124
I: :: :: ::
Z:Jack Campin * www.campin.me.uk * 2009
K:G
B2 AG|(F/G/A) DC|B,dGB      |AD       D2 |
B2 AG|(F/G/A) Dc|B/c/d    DA|BG       G2:|
gGgG | gGG2     |F/G/A/B/ A2|F/G/A/B/ A2 |
gGgG | gGGA     |B2       AG|DG       G2:|
Bded | Bded     |edcB       |AD       D2 |
Bded | Bded     |edef       |gG       G2:|
<end>
<start>
